X:27
T:Lord McDonalds Reel (2nd Setting). LIT.027
M:2/2
Q:1/4=140
L:1/8
B:Wm. Litten MS, 1802
Z:Village Music Project 2017 Anne Wride
K:G
d3 e dBgB | dBgB aA AB | d3e dBgB | Ac BA BG G2 :|
|:DG BG AG BG | DG BG A2A2 | DG BG AG BG | de dc BG G2 |
DG BG AG BG | DG BG A2A2 | dc BA GF ED | EF GA BG G2 :|

